X:1
T:Title
%%score 1 ( 2 3 ) { 4 | 5 }
L:1/8
Q:1/4=46
M:12/8
K:D
V:1 treble nm="Church Organ, Staff-1"
V:2 treble nm="Grand Piano, Right Hand"
V:3 treble 
V:4 bass nm="Grand Piano, Left Hand"
V:5 bass 
V:1
 D2 C B,2 C D2 C B,2 C | D2 C [B,D]2 C D2 C B,2 [CE] | d2 c B2 c B2 A F2 B | A2 G D2 E F3 F2 G | %4
w: By~J.~Barnby * * * * * * *||||
 F3 .F3 d2 c B2 c | B2 A F2 B A2 G D2 E | F2 F G2 F A3 G2 F | E3 E3 D3 .D3 | E2 E F2 ^G A2 E G2 F | %9
w: |||||
 E2 ^G c2 B B2 A [CE]3 | F2 F ^G2 F F2 B A2 G | F2 ^A d2 c c2 B A2 ^G | F2 A c2 d c3 c3 | %13
w: ||||
 d2 c B2 c B2 A F2 B | A2 G D2 E F3 F2 G | F3 .F3 d2 c B2 c | B2 A F2 B A2 G D2 E | %17
w: ||||
 F2 F G2 F A3 G2 E | [DF]3 [GA]3 [FA]3 [GA]3 | [FA]3 B3 A3 A3 | D2 C B,2 C D2 C B,2 C | %21
w: ||||
 D2 C [B,D]2 C D2 C B,2 [CE] | d2 c B2 c B2 A F2 B | A2 G D2 E F3 F2 G | F3 .F3 d2 c B2 c | %25
w: ||||
 B2 A F2 B A2 G D2 E | F2 F G2 F A3 G2 F | E3 E3 D3 .D3 | E2 E F2 ^G A2 E G2 F | %29
w: ||||
 E2 ^G c2 B B2 A [CE]3 | F2 F ^G2 F F2 B A2 G | F2 ^A d2 c c2 B A2 ^G | F2 A c2 d c3 c3 | %33
w: ||||
 d2 c B2 c B2 A F2 B | A2 G D2 E F3 F2 G | F3 .F3 d2 c B2 c | B2 A F2 B A2 G D2 E | %37
w: ||||
 F2 F G2 F A3 G2 E | D3 D3 D3 E3 | D12 | D3 D3 .D3 z3 |] %41
w: ||||
V:2
 [FA]3 [GA]3 [FA]3 [GA]3 | [FA]3 B3 A3 A3 | [DF]2 A, [EG]2 A, [DF]2 A, [=CF]2 D | %3
w: .~ * * *||When~ I~ view~ the~ Moth er~ hold ing~|
 B,2 D B,2 C .^A,2 [CE] .D2 B, | z3 [^G,B,]2 [A,C] .[B,D]3 [EG]2 A, | %5
w: In~ her~ arms~ the~ heav�n * * ly~|* * Thou bliss ful~|
 [DF]2 A, [=CF]2 D[K:bass] B,2 D B,2 D | A,2[K:treble] D G2 F [CA]3 [CG]2 [A,F] | %7
w: thoughts~ un fold ing,~ Melt~ my~ heart~ with~|sweet est~ joy,~ with~ sweet * est~|
 [B,E]3 [CE]3 D3 .D3 | z [^G,B,E]2 z .[B,E].[B,E] z .[A,E].[A,E] z .[B,=F].[A,^F] | %9
w: joy.~ * * *|* * the~ * be * ing,~|
 z .[^G,E][B,E] z .E[DE] z .[DE].[CE] [A,A][G,^G][=G,=G] | %10
w: * ry�s~ * in~ * port~ lives~ * *|
 .[CEF].[CE].[CE] z [^A,E][A,E] z .[B,D].[DF] z .[=CF].[B,G] | %11
w: God~ * her~ * up * her~ * ing,~|
 z E-[CE] z2 .E z .[DF].[DF] z .[B,D].[B,D] | z .[A,C].[A,C] z .[B,=F].[B,F] .[A,^F]3 [A,EG]3 | %13
w: * sand,~ sand~ * es~ * ly~|* * * ly~ gives.~ *|
 [DF]2 A, [EG]2 A, [DF]2 A, [=CF]2 D | B,2 D B,2 C .^A,2 [CE] .D2 B, | z6 z3 [EG]2 A, | %16
w: As~ the~ sun~ his~ ra diance~ fling ing,~|Shines~ up on~ the~ bright~ * * ex|Child~ to~|
 [DF]2 A, [=CF]2 D[K:bass] B,2 D B,2 D | A,2[K:treble] D =C3 [^CA]3 [CG]2 [CE] | %18
w: Ma ry~ cling ing,~ Doth~ her~ gen tle~|heart,~ her~ gen heart,~ * en|
 D2 C B,2 C D2 C B,2 C | D2 C [B,D]2 C D2 C [B,F]2 [CE] | [FA]3 [GA]3 [FA]3 [GA]3 | %21
w: trance.~ * * * * * * *||.~ * * *|
 [FA]3 B3 A3 A3 | [DF]2 A, [EG]2 A, [DF]2 A, [=CF]2 D | B,2 D B,2 C .^A,2 [CE] .D2 B, | %24
w: |See~ the~ Vir gin~ Moth er~ beam ing!~|Je sus~ by~ her~ arms~ * * em|
 z3 [^G,B,]2 [A,C] .[B,D]3 [EG]2 A, | [DF]2 A, [=CF]2 D[K:bass] B,2 D B,2 D | %26
w: * * Dew~ soft est~|ros es~ gleam ing~ Vi o let~ with~|
 A,2[K:treble] D G2 F [CA]3 [CG]2 [A,F] | [B,E]3 [CE]3 D3 .D3 | %28
w: li ly~ chaste,~ with~ li * ly~|chaste!~ * * *|
 z [^G,B,E]2 z .[B,E].[B,E] z .[A,E].[A,E] z .[B,=F].[A,^F] | %29
w: * * ther~ * ly~ * ing,~|
 z .[^G,E][B,E] z .E[DE] z .[DE].[CE] [A,A][G,^G][=G,=G] | %30
w: * the~ * of~ * tual~ love,~ * *|
 .[CEF].[CE].[CE] z [^A,E][A,E] z .[B,D].[DF] z .[=CF].[B,G] | z E2 z F2 z6 | %32
w: Thick~ * as~ * in~ * dows~ * ing,~||
 z .[A,C].[A,C] z .[B,=F].[B,F] .[A,^F]3 [A,EG]3 | [DF]2 A, [EG]2 A, [DF]2 A, [=CF]2 D | %34
w: * * * a bove,~ *|O~ may~ one~ such~ ar row~ flow ing,~|
 B,2 D B,2 C .^A,2 [CE] .D2 B, | z6 z3 [EG]2 A, | [DF]2 A, [=CF]2 D[K:bass] B,2 D B,2 D | %37
w: Sweet est~ Child,~ which~ Thou~ * * dost~|Mo ther�s~|bo som~ go ing,~ Bless ed~ Je su,~|
 A,2[K:treble] D =C3 [^CA]3 [CG]2 [CE] | D3 [A,=CD]3 [G,B,D]3 [G,^A,E]3 | D12 | D3 D3 .D3 z3 |] %41
w: pierce~ my~ he pierce~ * my~|heart,~ Bless * ed~|Je|su.~ * *|
V:3
 x12 | x12 | x12 | x12 | x12 | x6[K:bass] x6 | x2[K:treble] x10 | x12 | x12 | x12 | x12 | %11
w: |||||||||||
 z .^A,2 z F2 z6 | x12 | x12 | x12 | x12 | x6[K:bass] x6 | x2[K:treble] x10 | x12 | x12 | x12 | %21
w: ||||||||||
 x12 | x12 | x12 | x12 | x6[K:bass] x6 | x2[K:treble] x10 | x12 | x12 | x12 | x12 | %31
w: ||||||||||
 z .^A,.C z2 .E z .[DF].[DF] z .[B,D].[B,D] | x12 | x12 | x12 | x12 | x6[K:bass] x6 | %37
w: * less~ the~ * a * as~||||||
 x2[K:treble] x10 | x12 | x12 | x12 |] %41
w: ||||
V:4
 D,2 A, C,2 A, D,2 A, A,,2 A, | .D,3 E,3 .F,3 G,3 | D,3 .D,3 D,3 .D,3 | %3
 .G,,3 G,,3 .G,,2 ^A,, .B,,2 D, | .^A,2 A, F,,3 B,,2 F, A,,3 | D,3 D,3 G,,3 G,,3 | %6
 A,,3 D,3 E,3 E,2 F, | G,3 G,3 F,3 .F,3 | z12 | z6 z3 [CE]3 | .F,.F,.F, z .F,.F, z .F,.F, .E,,3 | %11
 .F,,3 .F,3 .B,,3 B,,3 | .C,3 C,3 .F,3 A,,3 | D,3 .D,3 D,3 .D,3 | G,,3 G,,3 .F,,2 ^A,, .B,,2 D, | %15
 .^A,2 A, [^G,B,]2 [A,C] .[B,D]3 A,,3 | D,3 D,3 G,,3 G,,3 | A,,3 ^D,3 E,3 E,2 G, | %18
 F,2 A, A,,2 A, D,2 A, A,,2 A, | .D,3 E,3 .F,3 G,3 | D,2 A, C,2 A, D,2 A, A,,2 A, | %21
 .D,3 E,3 .F,3 G,3 | D,3 .D,3 D,3 .D,3 | .G,,3 G,,3 .G,,2 ^A,, .B,,2 D, | %24
 .^A,2 A, F,,3 B,,2 F, A,,3 | D,3 D,3 G,,3 G,,3 | A,,3 D,3 E,3 E,2 F, | G,3 G,3 F,3 .F,3 | z12 | %29
 z6 z3 [CE]3 | .F,.F,.F, z .F,.F, z .F,.F, .E,,3 | .F,,3 .F,3 .B,,3 B,,3 | .C,3 C,3 .F,3 A,,3 | %33
 D,3 .D,3 D,3 .D,3 | G,,3 G,,3 .F,,2 ^A,, .B,,2 D, | .^A,2 A, [^G,B,]2 [A,C] .[B,D]3 A,,3 | %36
 D,3 D,3 G,,3 G,,3 | A,,3 ^D,3 E,3 E,2 G, | F,3 F,,3 G,,3 C,,3 | D,,3 D,,3 A,,3 A,,3 | %40
 A,,3 A,,3 .A,,3 z3 |] %41
V:5
 z12 | z3 ^G,,3 .A,,3 A,,3 | D,,3 .D,,3 D,,3 .D,,3 | z12 | .F,2 F, z3 z3 A,,,3 | %5
 D,,3 D,,3 G,,,3 G,,,3 | A,,,3 A,,3 A,,3 A,,2 A,, | A,,3 A,,3 D,3 .D,3 | .D,,3 .D,3 .C,3 .D,3 | %9
 .E,3 .E,,3 .A,,3 A,,3 | .^A,, .A,,2 z3 z6 | z6 z3 B,,,3 | .C,,3 C,,3 .F,,3 A,,,3 | %13
 D,,3 .D,,3 D,,3 .D,,3 | z12 | .F,2 F, F,,2 F,, B,,2 F, A,,,3 | D,,3 D,,3 G,,,3 G,,,3 | %17
 A,,,3 A,,3 A,,3 A,,2 A,, | .D,3 z3 z6 | z3 ^G,,3 .A,,3 A,,3 | z12 | z3 ^G,,3 .A,,3 A,,3 | %22
 D,,3 .D,,3 D,,3 .D,,3 | z12 | .F,2 F, z3 z3 A,,,3 | D,,3 D,,3 G,,,3 G,,,3 | %26
 A,,,3 A,,3 A,,3 A,,2 A,, | A,,3 A,,3 D,3 .D,3 | .D,,3 .D,3 .C,3 .D,3 | .E,3 .E,,3 .A,,3 A,,3 | %30
 .^A,, .A,,2 z3 z6 | z6 z3 B,,,3 | .C,,3 C,,3 .F,,3 A,,,3 | D,,3 .D,,3 D,,3 .D,,3 | z12 | %35
 .F,2 F, F,,2 F,, B,,2 F, A,,,3 | D,,3 D,,3 G,,,3 G,,,3 | A,,,3 A,,3 A,,3 A,,2 A,, | B,,3 z3 z6 | %39
 z6 D,,3 D,,3 | D,,3 D,,3 .D,,3 z3 |] %41

